X: 41922
T: Waiting For The Dawn
R: reel
M: 4/4
K: Eminor
|:B2BA BEBc|cc2A BAGB|AGA2 AGGA|AA2G AGFA|B2BA BEBc|
cc2A BAGB|1 APD3 ADFd|d2Bd AGFA:|2 APD3 ADFd|d2Bd AGFD||
|:ECPC2 FGFG|ADPD2 AGFA|BDDA B2AB|B2B2 AGFD|ECPC2 FGFG|
ADPD2 AGFA|1 GFE2 EDB,D|GFGA BAGF:|2 GFE2 E4|E3D GFGA||

